dist/img/header/icons/Facebook.svg

<svg width="69" height="69" viewBox="0 0 69 69" fill="none" xmlns="http://www.w3.org/2000/svg">
<path d="M34.4984 69C24.965 69 16.315 65.1721 10.1234 58.8911C3.83333 52.7066 0 44.0705 0 34.5491C0 25.0293 3.83333 16.3916 10.1234 10.1089C16.315 3.82788 24.965 0 34.4984 0C44.0334 0 52.6817 3.82788 58.9718 10.1089C65.1651 16.39 69 25.0293 69 34.5491C69 44.0705 65.1651 52.7066 58.9718 58.8911C52.6801 65.1721 44.0317 69 34.4984 69ZM30.6651 29.3465H25.5534V35.7274H30.6651V51.2353H37.055V35.7274H43.4434V29.3465H37.055V26.1078C37.055 25.0277 37.6434 24.144 38.3301 24.144H43.4434V17.8629H38.3301C34.1034 17.8629 30.6651 21.5926 30.6651 26.206V29.3465Z" fill="#876191"/>
</svg>

<svg width="69" height="69" fill="none" xmlns="http://www.w3.org/2000/svg"><path d="M34.498 69c-9.533 0-18.183-3.828-24.375-10.109C3.833 52.707 0 44.071 0 34.55c0-9.52 3.833-18.157 10.123-24.44C16.315 3.828 24.965 0 34.498 0a34.49 34.49 0 0 1 24.474 10.109C65.165 16.39 69 25.029 69 34.549c0 9.522-3.835 18.158-10.028 24.342A34.496 34.496 0 0 1 34.498 69Zm-3.833-39.654h-5.112v6.381h5.112v15.508h6.39V35.727h6.388v-6.38h-6.388v-3.24c0-1.08.588-1.963 1.275-1.963h5.113v-6.281H38.33c-4.227 0-7.665 3.73-7.665 8.343v3.14Z" fill="#876191"/></svg>
